icon-themes/sifr_svg/cmd/sc_borderdialog.svg

<svg viewBox="0 0 16 16" xmlns="http://www.w3.org/2000/svg"><path d="m1 1v3h14v-3zm0 6v2h14v-2zm0 4v1h14v-1zm0 3v1h2v-1zm3 0v1h2v-1zm3 0v1h2v-1zm3 0v1h2v-1zm3 0v1h2v-1z" fill="#555753"/></svg>

<svg xmlns="http://www.w3.org/2000/svg" viewBox="0 0 16 16">
  <path
     style="fill:#555753"
     d="M 1 1 L 1 4 L 15 4 L 15 1 L 1 1 z M 1 7 L 1 9 L 15 9 L 15 7 L 1 7 z M 1 11 L 1 12 L 15 12 L 15 11 L 1 11 z M 1 14 L 1 15 L 3 15 L 3 14 L 1 14 z M 4 14 L 4 15 L 6 15 L 6 14 L 4 14 z M 7 14 L 7 15 L 9 15 L 9 14 L 7 14 z M 10 14 L 10 15 L 12 15 L 12 14 L 10 14 z M 13 14 L 13 15 L 15 15 L 15 14 L 13 14 z "
     />
</svg>
